Adwaita++/mimetypes/16/application-x-gcstar.svg

<svg height="16" width="16" xmlns="http://www.w3.org/2000/svg">
  <path d="m8 .4999998c-4.1382387 0-7.4999961 3.3617385-7.4999961 7.499981 0 4.1382422 3.3617574 7.5000192 7.4999961 7.5000192 4.138243 0 7.500004-3.361777 7.5-7.5000192 0-4.1382425-3.361757-7.499981-7.5-7.499981zm-3.8367155 5.1005857c.8770733-.022677 1.746977.5727874 2.1087873 1.5281386.4453078 1.1757354-.046261 2.4544252-1.0968755 2.8523338-1.0505991.3979091-2.2658264-.2339527-2.7111304-1.4097637-.445308-1.1757732.04626-2.454463 1.0968715-2.8523339.196989-.074457.399942-.1130078.6023471-.1182992zm7.8029295 0c.202393.00756.404768.043843.601757.1182993 1.050603.3978708 1.542765 1.6765606 1.097461 2.8523338-.445303 1.1757732-1.660531 1.8076724-2.711134 1.4097637-1.0505991-.3979086-1.5427692-1.6765984-1.0974615-2.8523338.3618145-.9553512 1.2322995-1.5515338 2.1093775-1.5281385z" fill="#474747"/>
</svg>

<svg xmlns="http://www.w3.org/2000/svg" width="16" height="16" version="1.1">
 <path d="m 8,0.4999998 c -4.1382387,0 -7.4999961,3.3617385 -7.4999961,7.499981 C 0.5000039,12.138223 3.8617613,15.5 8,15.5 c 4.138243,0 7.500004,-3.361777 7.5,-7.5000192 0,-4.1382425 -3.361757,-7.499981 -7.5,-7.499981 z M 4.1632845,5.6005855 C 5.0403578,5.5779085 5.9102615,6.1733729 6.2720718,7.1287241 6.7173796,8.3044595 6.2258108,9.5831493 5.1751963,9.9810579 4.1245972,10.378967 2.9093699,9.7471052 2.4640659,8.5712942 2.0187579,7.395521 2.5103259,6.1168312 3.5609374,5.7189603 3.7579264,5.6445033 3.9608794,5.6059525 4.1632845,5.6006611 Z m 7.8029295,0 c 0.202393,0.00756 0.404768,0.043843 0.601757,0.1182993 1.050603,0.3978708 1.542765,1.6765606 1.097461,2.8523338 C 13.220129,9.7469918 12.004901,10.378891 10.954298,9.9809823 9.9036989,9.5830737 9.4115288,8.3043839 9.8568365,7.1286485 10.218651,6.1732973 11.089136,5.5771147 11.966214,5.60051 Z" style="fill:#474747"/>
</svg>
